movekom_app/assets/icons/modo_antIheladas_automatico.svg

<svg height="61.009" viewBox="0 0 55.56 61.009" width="55.56" xmlns="http://www.w3.org/2000/svg"><path d="m28.916 46.229-12.3-7.1v-14.22l12.3-7.1 12.3 7.1v14.208zm0-43.689v15.36m8.884-11.036-8.828 5.157m-8.932-5.157 8.821 5.157m25.781 5.151-13.3 7.691m13.992 2.163-8.878-5.049m0-10.313-.048 10.215m-43.218-4.706 13.3 7.691m-13.99 2.172 8.878-5.058m0-10.313.048 10.215m17.474 39.669v-15.366m-.054 5.877-8.81 5.157m17.754 0-8.824-5.157m-25.776-5.15 13.3-7.691m-5.112 2.881-8.878-5.053m8.885 15.37.048-10.217m43.21 4.708-13.3-7.691m13.992-2.163-8.878 5.058m0 10.313-.048-10.215" fill="none" stroke="#393939" stroke-linecap="round" stroke-linejoin="round" stroke-width="2" transform="translate(-1.136 -1.54)"/></svg>

<svg xmlns="http://www.w3.org/2000/svg" width="55.56" height="61.009" viewBox="0 0 55.56 61.009">
  <g id="Capa_2" data-name="Capa 2" transform="translate(-1.136 -1.54)">
    <g id="Capa_2-2" data-name="Capa 2" transform="translate(2.5 2.54)">
      <path id="Trazado_859" data-name="Trazado 859" d="M28.916,46.229l-12.3-7.1V24.909l12.3-7.1,12.3,7.1V39.117Zm0-43.689V17.9M37.8,6.864l-8.828,5.157M20.04,6.864l8.821,5.157m25.781,5.151-13.3,7.691m13.992,2.163-8.878-5.049m0-10.313-.048,10.215M3.19,17.173l13.3,7.691M2.5,27.036l8.878-5.058m0-10.313.048,10.215M28.9,61.549V46.183m-.054,5.877-8.81,5.157m17.754,0-8.824-5.157M3.19,46.91l13.3-7.691M11.378,42.1,2.5,37.047m8.885,15.37L11.433,42.2m43.21,4.708-13.3-7.691m13.992-2.163-8.878,5.058m0,10.313-.048-10.215" transform="translate(-2.5 -2.54)" fill="none" stroke="#393939" stroke-linecap="round" stroke-linejoin="round" stroke-width="2"/>
    </g>
  </g>
</svg>
